Papirus/48x48/apps/ibus-anthy.svg

<svg width="48" height="48" version="1.1" xmlns="http://www.w3.org/2000/svg">
 <g>
  <rect transform="matrix(0,-1,-1,0,0,0)" x="-44" y="-44" width="40" height="40" rx="2" ry="2" style="fill:#2095f2"/>
  <path d="m6 4c-1.108 0-2 0.892-2 2v1c0-1.108 0.892-2 2-2h36c1.108 0 2 0.892 2 2v-1c0-1.108-0.892-2-2-2z" style="fill:#ffffff;opacity:.2"/>
  <path d="m6 45c-1.108 0-2-0.892-2-2v-1c0 1.108 0.892 2 2 2h36c1.108 0 2-0.892 2-2v1c0 1.108-0.892 2-2 2z" style="opacity:.2"/>
  <g style="opacity:.2">
   <path d="m33.696 14.287893c-3.808 0.832-8.096 1.312-11.712 1.504l0.192-0.96c0.224-1.056 0.384-2.112 0.736-3.232l-4.48-0.192c0.032 1.056 0 1.824-0.16 3.2-0.032 0.384-0.128 0.8-0.192 1.28-1.92-0.032-4.32-0.288-6.208-0.608v3.936c1.6 0.16 3.456 0.288 5.472 0.32-0.832 3.488-2.112 7.712-3.616 10.624l3.744 1.344c0.32-0.544 0.544-0.96 0.896-1.376 1.888-2.432 5.12-3.744 8.768-3.744 3.072 0 4.736 1.6 4.736 3.488 0 4.672-7.008 5.504-13.952 4.384l1.12 4.096c10.24 1.088 17.088-1.472 17.088-8.608 0-4.032-3.392-6.784-8.512-6.784-2.912 0-5.312 0.576-7.872 1.984 0.512-1.536 1.024-3.552 1.44-5.472 4.256-0.224 9.28-0.832 12.576-1.344z"/>
  </g>
  <g style="fill:#ffffff">
   <path d="m33.696 13.287813c-3.808 0.831999-8.096 1.311999-11.712 1.503999l0.192-0.96c0.224-1.055999 0.384-2.111999 0.736-3.232l-4.48-0.192c0.032 1.056001 0 1.824001-0.16 3.2-0.032 0.384-0.128 0.8-0.192 1.28-1.92-0.032-4.32-0.288-6.208-0.608v3.936c1.6 0.16 3.456 0.288 5.472 0.32-0.832 3.488-2.112 7.712001-3.616 10.624l3.744 1.344c0.32-0.544 0.544-0.959999 0.896-1.376 1.888-2.431999 5.12-3.744 8.768-3.744 3.072 0 4.736 1.6 4.736 3.488 0 4.672001-7.008 5.504001-13.952 4.384l1.12 4.096c10.24 1.088001 17.088-1.472 17.088-8.608 0-4.032-3.392-6.784-8.512-6.784-2.912 0-5.312 0.576-7.872 1.984 0.512-1.536 1.024-3.552 1.44-5.472 4.256-0.224 9.28-0.832 12.576-1.344z"/>
  </g>
 </g>
</svg>

<svg xmlns="http://www.w3.org/2000/svg" width="48" height="48" version="1.1">
 <rect style="opacity:0.2" width="40" height="40" x="4" y="5" rx="2" ry="2"/>
 <rect style="fill:#2095f2" width="40" height="40" x="4" y="4" rx="2" ry="2"/>
 <path style="fill:#ffffff;opacity:0.2" d="M 6 4 C 4.892 4 4 4.892 4 6 L 4 7 C 4 5.892 4.892 5 6 5 L 42 5 C 43.108 5 44 5.892 44 7 L 44 6 C 44 4.892 43.108 4 42 4 L 6 4 z"/>
 <path style="opacity:0.2" d="M 33.696,14.288 C 29.888,15.12 25.6,15.6 21.984,15.792 L 22.176,14.832 C 22.4,13.776 22.56,12.72 22.912,11.6 L 18.432,11.408 C 18.464,12.464 18.432,13.232 18.272,14.608 18.24,14.992 18.144,15.408 18.08,15.888 16.16,15.856 13.76,15.6 11.872,15.28 V 19.216 C 13.472,19.376 15.328,19.504 17.344,19.536 16.512,23.024 15.232,27.248 13.728,30.16 L 17.472,31.504 C 17.792,30.96 18.016,30.544 18.368,30.128 20.256,27.696 23.488,26.384 27.136,26.384 30.208,26.384 31.872,27.984 31.872,29.872 31.872,34.544 24.864,35.376 17.92,34.256 L 19.04,38.352 C 29.28,39.44 36.128,36.88 36.128,29.744 36.128,25.712 32.736,22.96 27.616,22.96 24.704,22.96 22.304,23.536 19.744,24.944 20.256,23.408 20.768,21.392 21.184,19.472 25.44,19.248 30.464,18.64 33.76,18.128 Z"/>
 <path style="fill:#ffffff" d="M 33.696,13.288 C 29.888,14.12 25.6,14.6 21.984,14.792 L 22.176,13.832 C 22.4,12.776 22.56,11.72 22.912,10.6 L 18.432,10.408 C 18.464,11.464 18.432,12.232 18.272,13.608 18.24,13.992 18.144,14.408 18.08,14.888 16.16,14.856 13.76,14.6 11.872,14.28 V 18.216 C 13.472,18.376 15.328,18.504 17.344,18.536 16.512,22.024 15.232,26.248 13.728,29.16 L 17.472,30.504 C 17.792,29.96 18.016,29.544 18.368,29.128 20.256,26.696 23.488,25.384 27.136,25.384 30.208,25.384 31.872,26.984 31.872,28.872 31.872,33.544 24.864,34.376 17.92,33.256 L 19.04,37.352 C 29.28,38.44 36.128,35.88 36.128,28.744 36.128,24.712 32.736,21.96 27.616,21.96 24.704,21.96 22.304,22.536 19.744,23.944 20.256,22.408 20.768,20.392 21.184,18.472 25.44,18.248 30.464,17.64 33.76,17.128 Z"/>
</svg>
